include/LD/assets/icons/standard/pricebook.svg

<?xml version="1.0"?><svg xmlns="http://www.w3.org/2000/svg" width="100" height="100" viewBox="0 0 100 100"><path fill="#fff" d="m71.7 20h-37.6c-3.3 0-6.1 2.8-6.1 5.8v2.2h-2c-2.2 0-4 1.8-4 4s1.8 4 4 4h2v10h-2c-2.2 0-4 1.8-4 4s1.8 4 4 4h2v10h-2c-2.2 0-4 1.8-4 4s1.8 4 4 4h2v1.8c0 3 2.8 6.2 6.1 6.2h37.6c3.3 0 6.3-3.3 6.3-6.6v-48c0-3.3-3-5.4-6.3-5.4z m-28.7 41c0 0.6-0.4 1-1 1h-4c-0.6 0-1-0.4-1-1v-22c0-0.6 0.4-1 1-1h4c0.6 0 1 0.4 1 1v22z m8 0c0 0.6-0.4 1-1 1h-2c-0.6 0-1-0.4-1-1v-22c0-0.6 0.4-1 1-1h2c0.6 0 1 0.4 1 1v22z m10 0c0 0.6-0.4 1-1 1h-4c-0.6 0-1-0.4-1-1v-22c0-0.6 0.4-1 1-1h4c0.6 0 1 0.4 1 1v22z m8 0c0 0.6-0.4 1-1 1h-2c-0.6 0-1-0.4-1-1v-22c0-0.6 0.4-1 1-1h2c0.6 0 1 0.4 1 1v22z"></path></svg>

<svg xmlns="http://www.w3.org/2000/svg" x="0px" y="0px" width="100" height="100"
	 viewBox="0 0 100 100" enable-background="new 0 0 100 100" xml:space="preserve">
<path fill="#FFFFFF" d="M71.7,20H34.1c-3.3,0-6.1,2.8-6.1,5.8V28h-2c-2.2,0-4,1.8-4,4s1.8,4,4,4h2v10h-2c-2.2,0-4,1.8-4,4s1.8,4,4,4
	h2v10h-2c-2.2,0-4,1.8-4,4s1.8,4,4,4h2v1.8c0,3,2.8,6.2,6.1,6.2h37.6c3.3,0,6.3-3.3,6.3-6.6v-48C78,22.1,75,20,71.7,20z M43,61
	c0,0.6-0.4,1-1,1h-4c-0.6,0-1-0.4-1-1V39c0-0.6,0.4-1,1-1h4c0.6,0,1,0.4,1,1V61z M51,61c0,0.6-0.4,1-1,1h-2c-0.6,0-1-0.4-1-1V39
	c0-0.6,0.4-1,1-1h2c0.6,0,1,0.4,1,1V61z M61,61c0,0.6-0.4,1-1,1h-4c-0.6,0-1-0.4-1-1V39c0-0.6,0.4-1,1-1h4c0.6,0,1,0.4,1,1V61z
	 M69,61c0,0.6-0.4,1-1,1h-2c-0.6,0-1-0.4-1-1V39c0-0.6,0.4-1,1-1h2c0.6,0,1,0.4,1,1V61z"/>
</svg>
